X:9174
T:Lady of the Lake,1st part. JNu.35
M:6/8
L:1/8
Q:120
S:James Nuttall MS,c1830?,Rossendale,East Lancs.
R:Jig
O:England
A:East Lancashire
Z:vmp.Manchester Morris Men
K:A
"primo"e|cdB A2E|A2E A2E|cdB A2c|Bee e2d|!
cdB A2E|F2E A2E|F2E F2E|1FAA A2::!
c2c dcd|e2e efg|a2g f2e|edc B3|!
c2c dcd|e2e efg|a2f b2a|gaf e2d:|]


